X: 1
T: Polska efter Manne Stj\"arnsten
T: Sl\"angpolska fr\aan Torp
O: Sweden
Z: 2009 John Chambers <jc:trillian.mit.edu>
S: handwritten MS of unknown origin
M: 3/4
L: 1/8
K: G
V: 1
|: G2 G>(A B)>c | d2 d>(B c)>A \
| f2 f>(A c)>B | g2 g>(B d)>B |\
|  G2 G>(A B)>c |
| d2 d>(B c)>A | f2 f>(e c)>A \
|1 G2 G3 D :|2 G2 G3 g \
|: b2 G>(B d)>(g | f)>(A d)>(f a2) |
| c'2 A>(f a)>(f | g2) G>(B d)>(g |\
| b2) G>(B d)>(g | f)>(A d)>(f a2) \
| c'2 [AD]>(f a)>(f | g2) g3 z :|
V: 2
|: B,2 B,>(D G)>A | B2 B>(G A)>F \
| d2 d>(F A)>G | B2 B>(G B)>G |\
|  B,2 B,>(D G)>A |
| B2 B>(G A)>F | d2 d>(c A)>F \
|1 G>(D B,)>(A, B,)C :|2 G>(D B,)>(D G)B \
|: (G2 D2 B2) | D2 F>A F2 |
| (A2 D2 c2) | B6 |\
|  (G2 D2 B2) | D2 F>A F2 \
| (A2 D2 c2) | B2 B3 z :|

%%sep 1 1 500

